icons/heart-16.svg

<svg xmlns="http://www.w3.org/2000/svg" width="16" height="16" viewBox="0 0 16 16"><path fill-rule="evenodd" d="M4.25 2.5c-1.336 0-2.75 1.164-2.75 3 0 2.15 1.58 4.144 3.365 5.682A20.565 20.565 0 008 13.393a20.561 20.561 0 003.135-2.211C12.92 9.644 14.5 7.65 14.5 5.5c0-1.836-1.414-3-2.75-3-1.373 0-2.609.986-3.029 2.456a.75.75 0 01-1.442 0C6.859 3.486 5.623 2.5 4.25 2.5zM8 14.25l-.345.666-.002-.001-.006-.003-.018-.01a7.643 7.643 0 01-.31-.17 22.075 22.075 0 01-3.434-2.414C2.045 10.731 0 8.35 0 5.5 0 2.836 2.086 1 4.25 1 5.797 1 7.153 1.802 8 3.02 8.847 1.802 10.203 1 11.75 1 13.914 1 16 2.836 16 5.5c0 2.85-2.045 5.231-3.885 6.818a22.08 22.08 0 01-3.744 2.584l-.018.01-.006.003h-.002L8 14.25zm0 0l.345.666a.752.752 0 01-.69 0L8 14.25z"/></svg>

<svg xmlns="http://www.w3.org/2000/svg" width="16" height="16" viewBox="0 0 16 16">
  <defs/>
  <path d="M8,14.25 L8.345,14.916 C8.129,15.028 7.871,15.028 7.655,14.916 L7.647,14.912 L7.629,14.902 C7.524,14.848 7.421,14.791 7.319,14.732 C6.1,14.038 4.95,13.23 3.885,12.318 C2.045,10.731 0,8.35 0,5.5 C0,2.836 2.086,1 4.25,1 C5.797,1 7.153,1.802 8,3.02 C8.847,1.802 10.203,1 11.75,1 C13.914,1 16,2.836 16,5.5 C16,8.35 13.955,10.731 12.115,12.318 C10.959,13.306 9.705,14.172 8.371,14.902 L8.353,14.912 L8.347,14.915 L8.345,14.915 Z M4.25,2.5 C2.914,2.5 1.5,3.664 1.5,5.5 C1.5,7.65 3.08,9.644 4.865,11.182 C5.839,12.015 6.888,12.755 8,13.393 C9.112,12.755 10.161,12.015 11.135,11.182 C12.92,9.644 14.5,7.65 14.5,5.5 C14.5,3.664 13.086,2.5 11.75,2.5 C10.377,2.5 9.141,3.486 8.721,4.956 C8.629,5.278 8.335,5.499 8,5.499 C7.665,5.499 7.371,5.278 7.279,4.956 C6.859,3.486 5.623,2.5 4.25,2.5 Z"/>
</svg>
